math-cos.svg

<svg fill="currentColor" viewBox="0 0 24 24"><path d="M4 7a2 2 0 0 0-2 2v6a2 2 0 0 0 2 2h2a2 2 0 0 0 2-2v-1H6v1H4V9h2v1h2V9a2 2 0 0 0-2-2zm7 0a2 2 0 0 0-2 2v6a2 2 0 0 0 2 2h2a2 2 0 0 0 2-2V9a2 2 0 0 0-2-2zm0 2h2v6h-2zm7-2a2 2 0 0 0-2 2v2a2 2 0 0 0 2 2h2v2h-4v2h4a2 2 0 0 0 2-2v-2a2 2 0 0 0-2-2h-2V9h4V7z"/></svg>

<svg  viewBox="0 0 24 24" fill="currentColor"><path  d="M4,7A2,2 0 0,0 2,9V15A2,2 0 0,0 4,17H6A2,2 0 0,0 8,15V14H6V15H4V9H6V10H8V9A2,2 0 0,0 6,7H4M11,7A2,2 0 0,0 9,9V15A2,2 0 0,0 11,17H13A2,2 0 0,0 15,15V9A2,2 0 0,0 13,7H11M11,9H13V15H11V9M18,7A2,2 0 0,0 16,9V11A2,2 0 0,0 18,13H20V15H16V17H20A2,2 0 0,0 22,15V13A2,2 0 0,0 20,11H18V9H22V7H18Z"/></svg>
